X:1
T:Las, si amour nouveau
T:Simon de Bonnefond
T:Source : Livre IX de 27 chansons nouvelles à 4 parties---Paris---N.du Chemin---1551. Editor : André Vierendeels (31/03/18) Notes : Original clefs : C1, C3, C3, F4 Original note values have been halved Editorial accidentals above the staff  
T:Las, si amour nouveau
T:b
T:©
T:©
T:©
T:©
T:©
C:Simon de Bonnefond
Z:©
%%score [ 1 [ 2 3 ] 4 ]
L:1/8
Q:1/4=120
M:2/2
K:F
V:1 treble nm="Alto" snm="A"
V:2 treble-8 nm="Tenor 1" snm="T 1"
V:3 treble-8 nm="Tenor 2" snm="T 2"
V:4 bass nm="Bass" snm="B"
V:1
 G8 | F4 G4 | E4 z2 G2 | G2 G2 A2 F2 | G6 F2 | B4 A3 G |"^b" F2 E2 F4 |"^b" E2 G4 F2 | G8 | %9
w: Las,|si a-|mour nou-|veau con- seil n'ap-|por- *||||te,|
 z2 G2 G2 G2 | F4 z2 B2 | B2 B2 A4 | F4 G4 | z2 F2 G4- | G2 F2 A2 B2 | G4 F3 E | DC D4 C2 | D4 z4 | %18
w: en brief se-|ray, en|brief se- ray|con- trainct,|con- trainct|_ chan- ger ma|vi- * *||e,|
 F8 | G6 F2 |"^b""^b" E4 E4 | D6 D2 | D2 G2 B2 B2 | A2 G2 G4 | G2 B2 B2 B2 | A2 F4 G2 | E4 D4- | %27
w: tant|ay de|peur, tant|ay de|peur et sur moy|peult en- vi-|e, et sur moy|peult en- vi-|* e,|
 D4 z4 | G8 | F4 G4 | E4 z2 G2 | G2 G2 A2 F2 | G6 F2 | B4 A3 G |"^-natural" F2 E2 F4 | %35
w: _|qu'en|de- sir|vis, et|l'es- pe- ran- c'est|mor- *|te, l'es- pe-|ran- c'est mor-|
"^#" E2 G4 F2 | G8 |] %37
w: |te.|
V:2
 d8 | d4 B4 | c4 z2 c2 |"^b" d2 e2 f2 F2 | c4 B2 A2 |"^b" Bcde f2 c2 | d2 G2 d2 B2 | c2 B2 d4- | %8
w: Las,|si a-|mour nou-|veau con- seil n'ap-|por- * *|* * * * te, nou-|veau con- seil n'ap-|por- * te,|
 d4 z2 d2 | d2 d2 c2 B2 | d6 GA |"^-natural" Bcde f4 | z2 B4 e2- |"^b" e2 d2 e2 B2 | %14
w: _ en|brief se- ray con-|trainct chan- *|* * * * ger,|en brief|_ se- ray con-|
"^b" c2 d2 e2 d2 |"^b" e4 d2 A2 | B4 A4- | A4 z2 d2 | d6 d2 | B4 B4 | c6 B2 | A6 B2 | B2 d2 d2 d2 | %23
w: * trainct chan- *|* ger ma|vi- e,|_ tant|ay de|peur, tant|ay de|peur et|sur moy peult en-|
 f2 d2 e4 | d2 g2 f4- | f2 d3 c B2- | B2 A2 B4- | B4 z4 | d8 | d4 B4 | c4 z2 c2 |"^b" d2 e2 f2 F2 | %32
w: vi- * *|||* * e,|_|qu'en|de- sir|vis, et|l'es- pe- ran- c'est|
 c4 B2 A2 |"^b" Bcde f2 c2 | d2 G2 d2 B2 | c2 B2 d4- | d8 |] %37
w: mor- * *|* * * * te, et|l'es- pe- ran- c'est|mor- * te.|_|
V:3
 B8 | A4 G4 | G4 z2 G2 | B2 B2 c2 d2 |"^b" e4 d4- | d2 cB c2 A2 | B2 c2 F4 | G4 A4 | G4 z2 D2 | %9
w: Las,|si a-|mour nou-|veau con- seil n'ap-|por- *|* * * te, nou-|veau con- seil|n'ap- por-|te, en|
 G2 B2 G2 G2 | A6 d2 | d2 B2 c2 c2 | d2 d2 G2 G2 |"^b" B6 G2 | A2 B2 c2 F2 | c3 B AG F2- | %16
w: brief se- ray con-|trainct, en|bief se- ray con-|trainct chan- ger, con-|trainct chan-|ger ma vi- *||
"^-natural" F2 G2 E4 | z4 A4 | B6 A2 | G8 | G8 | F6 G2 | G2 B2 B2 G2 |"^-natural" A2 B2 c4 | %24
w: * * e,|tant|ay de|peur,|tant|ay de|peur et sur moy|peult l'en- vi-|
 B2 d2 d2 d2 | c2 B2 A2 G2- |"^b" G2 FE F4- | F4 z4 | B8 | A4 G4 | G4 z2 G2 | B2 B2 c2 d2 | %32
w: e, et sur moy|peult l'en- vi- *|* * * e,|_|qu'en|de- sir|vis, et|l'es- pe- ran- c'est|
"^b" e4 d4- | d2 cB c2 A2 | B2 c2 F4 | G4 A4 | G8 |] %37
w: mor- *||* * te,|est mor-|te.|
V:4
 G,,8 |"^b" D,4 E,4 | C,4 z2 C,2 |"^-natural" G,2 G,2 F,2 D,2 |"^b" C,D,E,F, G,2 D,2 | %5
w: Las,|si a-|mour nou-|veau con- seil n'ap-|por- * * * te, nou-|
"^b" G,2 G,2 F,3 E, | D,2 C,2 D,4 | C,2 G,,2 D,4 | G,,8 |"^b" z2 G,,2 C,2 E,2 | D,4 z2 G,2 | %11
w: veau con- seil _|_ _ n'ap-|por- * *|te,|en brief se-|ray, en|
"^b" G,2 G,2 F,4 |"^b" B,,4 E,4 |"^b" z2 B,,2 E,4- | E,2 D,2 C,2 B,,2 | C,4 D,3 C, | %16
w: brief se- ray|con- trainct,|con- trainct|_ chan- ger ma|vi- * *|
 B,,2 G,,2 A,,4 | D,8 | z4 D,4 |"^b" E,6 D,2 | C,4 C,4 | D,6 G,,2 | G,,2 G,2 G,2 G,2 | %23
w: |e,|tant|ay de|peu, tant|ay de|peur, et sur moy|
 F,2 G,2 C,D,E,F, |"^b" G,2 G,,A,, B,,C,D,E, | F,2 B,,2 D,2 E,2 |"^b" C,4 B,,4- | B,,4 z4 | G,,8 | %29
w: peult en vi- * * *|||* e,|_|qu'en|
"^b" D,4 E,4 | C,4 z2 C,2 | G,2 G,2 F,2 D,2 |"^b" C,D,E,F, G,2 D,2 |"^b" G,2 G,2 F,3 E, | %34
w: de- sir|vis, et|l'es- pe- ran- c'est|mor- * * * * *|te, et l'es- spe-|
 D,2 C,2 D,4 | C,2 G,,2 D,4 | G,,8 |] %37
w: ran- c'est mor-||te.|

